!!!SOCIAL_FUNCTION:	songs of the drum religion
!!!PDT:	1932
!!!OTL: No_91_Song_for_Men_Who_Prepare_Drum_(b).krn
!!!REG: Wisconsin
!!!LANG: Non-Tone
!!!LING_GROUP: Algonquin
**kern
*staff1
=1-
*clefF4
*k[f#c#g#d#a#]
*M2/4
4r
8r
16c#\LL
16c#\JJ
=2
16c#\LL
16c#\
16d#\
16d#\JJ
8.c#\L
16c#\Jk
=3
2c#\
=4
16B\LL
16B\
16G#\
16G#\JJ
8r
16c#\LL
16c#\JJ
=5
16c#\LL
16c#\
16d#\
16d#\JJ
8.c#\L
16c#\Jk
=6
2c#\
=7
16B\LL
16B\
16G#\
16G#\JJ
8.r
16B\
=8
16G#\LL
16G#\
16B\
16B\JJ
8.G#\L
16G#\Jk
=9!|:
*M3/4
8.G#\L
16G#\Jk
8G#\L
8G#\J
8r
16r
16c#\
=10
16G#\LL
16G#\
16B\
16G#\JJ
4F#\
4D#\
=11||
*M2/4
12C#/L
12C#/
12C#/J
12C#/L
12C#/
12D#/J
=12
12C#/L
12C#/
12C#/J
[4C#/
=13
4C#/]
16BB/LL
16BB/
16GG#/
32GG#/JJk
32r
=14
16BB/LK
8.BB/J
4BB/
=15
8GG#/L
8BB/J
8.GG#/L
16GG#/Jk
=16
2GG#/
=17||
*M2/4
8GG#/
8r
4r
=18
*M3/8
16B\LL
16B\J
8.G#\
16G#\Jk
==:|!
*-
